svgs/sharp-solid/image-polaroid.svg

<svg xmlns="http://www.w3.org/2000/svg" viewBox="0 0 448 512"><!--! Font Awesome Pro 6.6.0 by @fontawesome - https://fontawesome.com License - https://fontawesome.com/license (Commercial License) Copyright 2024 Fonticons, Inc. --><path d="M0 32l448 0 0 448L0 480 0 32zM64 96l0 256 320 0 0-256L64 96zm64 32a32 32 0 1 1 0 64 32 32 0 1 1 0-64zM352 320l-144 0-48 0-64 0 0-32 56-64 30.2 34.5L256 160l96 128 0 32z"/></svg>

<svg xmlns="http://www.w3.org/2000/svg" viewBox="0 0 448 512"><!--! Font Awesome Pro 6.4.0 by @fontawesome - https://fontawesome.com License - https://fontawesome.com/license (Commercial License) Copyright 2023 Fonticons, Inc. --><path d="M0 32H448V480H0V32zM64 96V352H384V96H64zm64 32a32 32 0 1 1 0 64 32 32 0 1 1 0-64zM352 320H208 160 96V288l56-64 30.2 34.5L256 160l96 128v32z"/></svg>
